X:3355
T:Conscrit quand tu partiras
C:Les Brayauds: Couleurs
M:3/4
L:1/8
K:C
Gc|e2 de fe|c2 Bc dc|B2 AG AB|A2G2 Gc|\
e2 de fe|c2 Bc dc|B2 AG AB|1cG ce Gc:|2 c2G2c2||\
|:e2 ec dc|e2c2 Gc|e2 ec dc|e3 e ef|\
g2 dd ef|e2c2 de|d2 GG AB|c2 G2c2:|


